X:1
T:Tomás Luis de Victoria 1548 - 1611
T:O sacrum convivium
%%score [ 1 2 ( 3 4 ) 5 ]
L:1/8
Q:1/4=240
M:4/4
K:C
V:1 treble nm="Cantus"
V:2 treble nm="Cantus secundus"
V:3 treble nm="Cantus tertius"
V:4 treble 
V:5 treble nm="Bassus"
V:1
"^C""^Q""^Q""^;""^U" x8 ||[K:F]"^-" x16- x4 | x16 x12 | x16 | d8 d4 d4 x4 | c6 B2 A4 G2 F2 | %6
w: |O|||sa- crum con-|vi- * * * *|
w: ||||||
 G12 G4 | A8 z4 c8 | c4 c6 B2 A4 x22 | G4 F8 G8 | A4 A8 G4 | A8 G4 F2 G2 x4 | A2 B2 c4- x8 | %13
w: * vi-|um, in|quo Chri- * *|stus su- mi-|tur, in quo|Chri- stus su *||
w: |||||||
 c4 =B2 A2 !courtesy!=B4 B4 x4 | c8 z4 c4 | c4 c4 A16 | z4 d4 d4 d4 x2 | B8 d8 x4 | %18
w: * * * * mi-|tur re-|co- li- tur,|re- co- li-|tur me-|
w: |||||
 c6 c2 A4 A4 x4 | c6 B2 x8 | A4 G2 F2 G12 | G4 C4 c4 c4 x4 | c4 A4 A4 c6 | c2 A8 z4 c4 | d8 c12 | %25
w: mo- ri- a, me-|mo- *||ri- a, re- co-|li- tur me- mo-|ri- a, me-|mo- *|
w: |||||||
 c4 c8 z8 | z16 x6 | z16 x4 | z4 A8 A4 x2 | B6 A2 G4 F4 x12 | B6 A2 G4 F4 x4 | E4 A4 G4 F4 x4 | %32
w: ri- a|||pas- si-|o- * * nis|e- * * *||
w: |||||||
 E4 F4 G8 x4 |"^-" x16 x4 |]"^Secunda pars" c12 c4 | d8 c16 | d16 x12 | d8 ^c8 x4 | z4 d8 d4 x2 | %39
w: ||Mens im-|ple- tur|gra-|ti- a,|Mens im-|
w: |||||||
 G8 A8 x8 |"^(  )" B6 AG F2 G2 A2 F2 | G4 G4 x10 | C4 c6 c2 c4 x2 | A4 c4 B4 A4 x2 | G8 z8 | %45
w: ple- tur|gra- * * * * * *|* ti-|a, & fu- tu-|ræ glo- ri- *|æ,|
w: ||||||
 F6 F2 F4 E4 x2 | F2 G2 A2 B2 c4 A4 x4 | G4 c6 B2 A4 x4 | G4 F4 G12 | G4 A8 z16 | z4 c8 c4 | %51
w: & fu- tu- ræ|glo * * * * ri-|æ, glo- * *||ri- æ,|No- bis|
w: ||||||
 A4 =B4 c6"^(  )" _B2 x8 | A4 G6 F2 F8 | E4 F4 A8 x4 | A4 F4 G4 A8 | G4 c8 c4 x8 | A4 =B4 c8 x4 | %57
w: pi- gnus da- *||* tur, No-|bis pi- gnus da-|tur, No- bis|pi- gnus da-|
w: ||||||
 c8 x8 | z8 z4 A4 | B2 c2 d2 B2 c4 B6 | A2 G4 C8 z16 | c8 B8 | A8 G8 | F8 G8 | C4 c8 c4 x4 | %65
w: tur|al-|le * * * * lu|* * ya,|al- le-|* lu-||ya, * *|
w: |||||||* al- le-|
 d8 c8 x12 | z4 G4 A2 B2 c2 A2 x8 | B2 c2 d6 c2 c6 x2 | B2 B8 A2 G2"^-" x16 |] x16 | x16 |] %71
w: |al- le * * *|* * lu- * *||||
w: lu- ya,||||||
V:2
"^C""^Q""^Q""^;""^U""^U""^U" x8 ||[K:F] A16 x4 | G16 x12 | A16 | B16 x4 | G4 c8 =B4 | c12 c4 | %7
w: |O|||sa-|crum con- *|vi- vi-|
w: |||||||
 c16 x4 | z16 x22 | z8 z4 F8 | E4 F8 C4 | c8 A4 c8 | F4 G4 x8 | A2 G2 F2 E2 D2 C2 F8 | %14
w: um,||in|quo Chri- stus,|in quo Chri-|* stus|su * * * * * *|
w: |||||||
 E2 D2 E4 E4 F2 G2 | A2 B2 c8 z4 x8 | F4 F4 F4 D4 x2 | d4 d4 d4 B8 | G8 c6 B2 x4 | A4 G4- x8 | %20
w: * * * mi- tur, *||re- co- li- tur,|re- co- li- tur|me- mo- *||
w: ||||||
 G2 F2 F8 E2 D2 x4 | E16 x4 | z4 c4 c4 c4 x2 | A4 A4 c6 BA x2 | G6 A2 B8 x4 | A4 G2 F2 G4 G4 x4 | %26
w: * * * ri *|a,|re- co- li-|tur me- mo- * *||* * * * ri-|
w: ||||||
 A4 c8 c4 x6 | d8 c4 d6 x2 | c2 c2 BA B8 A4 | c8 c4 d16 | d16 x4 |"^-" x16- x4 | x16 x4 | %33
w: a, pas- si-|o- nis e-|* * * * * ius,|pas- si- o-|nis|e-||
w: |||||||
"^-" x16 x4 |] A12 A4 | B8 A8 x8 | G6 A2 B4 A8 x8 | G2 F2 G4 G4 A4 x4 | E4 ^F8 G6 | %39
w: |Mens im-|ple- tur|gra- * * *|* * * ti- a,|Mens im- ple-|
w: ||||||
"^(  )" F2 E4 E4 F12 x2 | E4 D4 F8 | E4 x14 | F16 x2 | z4 F6 F2 F4 x2 | C4 c6 B2 A2 G2 | %45
w: * * tur gra-||ti-|a|& fu- tu-|ræ glo- * * *|
w: ||||||
 A4 F4 G4 c6 | c2 c4 A4 c6 x4 | B2 A2 G2 A2 G2 c4- x6 | c4 =B4 c8 x4 | z4 c8 c4 x12 | A4 c4 B8 | %51
w: * ri- æ, &|fu- tu- ræ glo-||* ri- æ,|no- bis|pi- gnus da-|
w: ||||||
 A8 G8 x8 | z8 G6 G2 x4 | F4 E4 F8 x4 | G8 A4 F8 | F4 D4 E4 F12 | E2 D2 E8 F8 | G8 A4 F4 | %58
w: * tur|||* * no-|bis pi- gnus da-||* tur, al-|
w: |No- bis|pi- gnus da-|* tur, *||||
 G2 A2 B2 G2 A2 G2 F2 E2 | D8 C4 D4 x2 | E2 F2 G2 E2 F2 G2 A4 x14 | G4 F8 E4 | F4 A4 F4 G4 | %63
w: le * * * lu * * *|* ya, al-|le * * * * * *|* * lu-|ya, * * *|
w: ||||* al- le- lu-|
 E4 F4 D4 E4 | C4 D8 E4 x4 | F2 G2 A2 F2 G4 A4 x12 | B8 A8 x8 | G4 c8 c4 x4 | %68
w: * al- le- lu-|ya, * *|||* al- le-|
w: ya, * * *|* al- le-|lu * * * * *||ya, * *|
 d2 c2 B2 A2 B4 c4 x14 |] d8"^-" x8- | x16 |] %71
w: lu * * * * *|* ya.||
w: |||
V:3
"^C""^Q""^Q""^;" x8 ||[K:F] z8 F12 | E2 D2 E8 F16 | F8 F4 F4 | E2 F2 G2 E2 F12 | E2 D2 E4 E4 x4 | %6
w: |O||sa- crum con-|vi * * * *|* * * vi-|
w: ||||||
 F4 A8 G4 | A8 G4 A6 x2 | B2 c8 =B4 c24 | z4 c8 A4 x4 | c8 x8 | F8 F8 x4 | G12 G4 | A8 z4 F4 x4 | %14
w: um, in quo|Chri- stus su-|* * mi- tur,|in quo|Chri-|stus su-|* mi-|tur, re-|
w: ||||||||
 F4 F4 D6 E2 | F8 z4 G4 x8 | G4 G4 E4 G6 | F2 F8 E4 x6 | F4 D4 C8 x4 | z4 c4 c4 c4 | A8 F8 x4 | %21
w: co- li- tur, *|* re-|co- li- tur me-||mo- ri- a,|re- co- li-|tur, re-|
w: |||||||
 F4 F4 C4 F8 | E4 F4 G6 F2 x2 | F8 E4 F4 x2 | A8 A4 x8 | B8 A4 B6 x2 | A2 A8 G4 A8 | z4 F8 F4 x4 | %28
w: co- li- tur me-|* * mo *|* ri- a,|pas- si-|o- nis e-|* * * ius,|pas- si-|
w: |||||||
 B6 A2 G4 F4 x2 | B6 A2 G4 F4 x12 | E4 A4 G4 F8 | E4"^-" x16 | z8 F12 | F4 F8 C8 |] F12 E4 | %35
w: o- * * nis|e- * * *|||Mens|im- ple- tur|gra- *|
w: |||||||
 D4 D4 E4 A8 x4 | A4 =B8 c16 | d12 c4 x4 | B4 B4 x10 | A24 | z4 c6 c2 c4 | A4 c8 =B4 x2 | %42
w: * ti- a, Mens|im- ple- tur|gra- *|* ti-||& fu- tu-|ræ glo- *|
w: |||||||
 c4 G4 A4 F6 | F2 F4 E4 F8 | E2 D2 x12 | E2 C2 F8 E2 D2 x2 | E4 E4 F4 A8 | A4 F4 G4 A4 x4 | %48
w: * ri- æ, &|fu- tu- ræ glo-|||* ri- æ, no-|bis pi- gnus da|
w: ||||||
 F8 E4 F4 x4 | D4 C4 c4- x16 | c4 c4 A4 =B4 | c8 c16 | z8 z4 c6 x2 | c2 c4 G4 A6 x4 | %54
w: |* tur, no-|* bis pi- gnus|da- tur,|no-|bis pi- gnus da-|
w: ||||||
 G2 F8 E4 F4 x2 | A4 x20 | B2 c2 d2 B2 c4 A4 x4 | G8 z4 F4 | G2 A2 B2 G2 A2 B2 c2 A2 | %59
w: * * * tur,|al-|le * * * * lu-|ya, al-|le * * * * * * *|
w: |||||
 B2 A2 A2 GF G4 G4 x2 | A4 c4 d4 B4 x14 | c4 A4 B4 G4 | A4 F4 B6 B2 | A4 F8 E4 | F4 G6 F2 F8 | %65
w: * * * * * * lu-|ya, * * *|* al- le- lu-|ya, * * *|* al- le-|* lu * *|
w: |* al- le- lu-|ya, * * *|* al- le- lu-|ya, * *||
 E4"^-" x8- x16 | x16 x8 | x16 x4 | x30 |] x16 | x16 |] %71
w: * ya.||||||
w: ||||||
V:4
 x8 ||[K:F] x20 | x28 | x16 | x20 | x16 | x16 | x20 | x38 | x20 | x16 | x20 | x16 | x20 | x16 | %15
w: |||||||||||||||
 x24 | x18 | x20 | x16 x4 | x16 | x16 x4 | x16 x4 | x8 x4 x4 x2 | x18 | x20 | x20 | x22 | x20 | %28
w: |||||||||||||
 x18 | x28 | x20 | x20 | x20 | x20 |] x16 | x24 | x28 | x20 | x18 | x16- x8 | x4 x4 x8 | x18 | %42
w: |||||||||||a,|||
 x18 | x18 | x16 | x18 | x20 | x20 | x20 | x28 | x16 | x24 | x20 | x20 | x20 | x24 | x20 | x16 | %58
w: ||||||||||||||||
 x16 | x18 | x30 | x16 | x16 | x16 | x20 | x28 | x24 | x20 | x30 |] x16 | x16 |] %71
w: |||||||||||||
V:5
"^C""^Q""^;""^U" x8 ||[K:F][K:treble-8] F16 x4 | c16 x12 | F16 | B8 B4 B4 x4 | c8 d8 | c12 c4 | %7
w: |O|||sa- crum con-|vi- *|* vi-|
w: |||||||
 F4 f8 e4 x4 | f8 c4 f8 x18 | e4 d4 d4 c8 | z4 f8 e4 | f8 c4 f8 | e4 x12 | d12 d4 x4 | c16 | %15
w: um in quo|Chri- stus su-|* * mi- tur,|in quo|Chri- stus su-||* mi-|tur,|
w: ||||||||
 z4 f4 f4 f4 x8 | d8 B8 x2 | B4 B4 G12 | G4 c6 c2 F8 | z8 x8 | z8 z4 c4 x4 | c4 c4 A8 x4 | %22
w: re- co- li-|tur, re-|co- li- tur,|me- mo- ri- a,||re-|co- li- tur,|
w: |||||||
 F8 F4 F4 x2 | F12 F4 x2 | c8 B8 x4 | c12 c4 x4 | F4 f8 f4 x6 | B8 f4 B8 | c4 d4 e4 f4 x2 | %29
w: re- co- li-|tur me-|mo- *|* ri-|a, pas- si-|o- nis e|* * * ius,|
w: |||||||
 F8 F4 B16 | B16 x4 |"^-" x16- x4 | x16 x4 |"^-" x16 x4 |] f12 f4 | B8 F4 f8 x4 | e4 d4 c4 B12 x4 | %37
w: pas- si- o-|nis|e-|||Mens im-|ple- tur gra-||
w: ||||||||
 B4 A8 d8 | G8 c8 x2 | F8 B12 x4 | A4 G4 G4 x4 | F8 z4 f6 | f2 f4 d4 f8 | e4 f6 e2 d4 x2 | %44
w: ti- a, mens|im- ple-|tur gra-|* * ti-|a, &|fu- tu- ræ glo-||
w: |||||||
 d4 c8 z4 | F6 F2 F4 c4 x2 | F6 G2 A2 B2 x8 | c4 d4 c12 | c4 F4 f8 x4 | f4 d4 e4 f4 x12 | %50
w: ri- æ,|& fu- tu- ræ|glo- * * *||ri- æ, no-|bis pi- gnus da-|
w: ||||||
 F4 c8 F4 | f8 e4 x12 | f4 c4 d8 x4 | c8 z4 F8 | F4 B4 G4 F2 G2 x4 | A2 B2 c12 x8 | A4 d8 c8 | %57
w: * * tru,|no- bis|pi- gnus da-|tur, no-|bis pi- gnus da *|||
w: |||||||
 F8 x8 | z8 z4 F4 | G2 A2 B2 G2 A4 B4 x2 | G8 F4 F4 x14 | G4 A4 B4 c4 | F4 f4 d4 _e4 | %63
w: tur,|al-|le * * * * *|lu- ya, al-|le- * lu- *|ya, * * *|
w: |||||* al- le- lu-|
 c4 d4 B4 c4 | A4 B4 G4 G4 x4 | F8 c8 x12 | B8 c16 | F8 B12 | A4 B8"^-" x8- x10 |] x16 | x16 |] %71
w: * al- le- lu-|ya, * * *|* al-|le- lu-|ya, *||||
w: ya, * * *|* al- le- lu-|ya, *||* al-|le- lu- ya.|||

